skin/frontend/meanbee/default/src/images/template/cross-hover.svg

<?xml version="1.0" encoding="utf-8"?>
<!-- Generated by IcoMoon.io -->
<!DOCTYPE svg PUBLIC "-//W3C//DTD SVG 1.1//EN" "http://www.w3.org/Graphics/SVG/1.1/DTD/svg11.dtd">
<svg version="1.1" xmlns="http://www.w3.org/2000/svg" xmlns:xlink="http://www.w3.org/1999/xlink" width="12" height="12" viewBox="0 0 32 32">
<path fill="#517cad" d="M31.708 25.708c-0-0-0-0-0-0l-9.708-9.708 9.708-9.708c0-0 0-0 0-0 0.105-0.105 0.18-0.227 0.229-0.357 0.133-0.356 0.057-0.771-0.229-1.057l-4.586-4.586c-0.286-0.286-0.702-0.361-1.057-0.229-0.13 0.048-0.252 0.124-0.357 0.228 0 0-0 0-0 0l-9.708 9.708-9.708-9.708c-0-0-0-0-0-0-0.105-0.104-0.227-0.18-0.357-0.228-0.356-0.133-0.771-0.057-1.057 0.229l-4.586 4.586c-0.286 0.286-0.361 0.702-0.229 1.057 0.049 0.13 0.124 0.252 0.229 0.357 0 0 0 0 0 0l9.708 9.708-9.708 9.708c-0 0-0 0-0 0-0.104 0.105-0.18 0.227-0.229 0.357-0.133 0.355-0.057 0.771 0.229 1.057l4.586 4.586c0.286 0.286 0.702 0.361 1.057 0.229 0.13-0.049 0.252-0.124 0.357-0.229 0-0 0-0 0-0l9.708-9.708 9.708 9.708c0 0 0 0 0 0 0.105 0.105 0.227 0.18 0.357 0.229 0.356 0.133 0.771 0.057 1.057-0.229l4.586-4.586c0.286-0.286 0.362-0.702 0.229-1.057-0.049-0.13-0.124-0.252-0.229-0.357z"></path>
</svg>

<?xml version="1.0" encoding="utf-8"?>
<!DOCTYPE svg PUBLIC "-//W3C//DTD SVG 1.1//EN" "http://www.w3.org/Graphics/SVG/1.1/DTD/svg11.dtd">
<svg version="1.1" xmlns="http://www.w3.org/2000/svg" xmlns:xlink="http://www.w3.org/1999/xlink" width="12" height="12" viewBox="0 0 32 32">
<path fill="#517cad" d="M31.708 25.708L22 16l9.708-9.708c.105-.105.18-.227.23-.357.132-.356.056-.77-.23-1.057L27.122.292c-.286-.286-.702-.36-1.057-.23-.13.05-.252.125-.357.23L16 9.998 6.292.29C6.187.188 6.065.11 5.935.064c-.356-.133-.77-.057-1.057.23L.292 4.877c-.286.286-.36.702-.23 1.057.05.13.125.252.23.357L10 16 .292 25.708c-.104.105-.18.227-.23.357-.132.355-.056.77.23 1.057l4.586 4.586c.286.286.702.36 1.057.23.13-.05.252-.125.357-.23L16 22l9.708 9.708c.105.105.227.18.357.23.356.132.77.056 1.057-.23l4.586-4.586c.286-.286.362-.702.23-1.057-.05-.13-.125-.252-.23-.357z"></path>
</svg>
